X: 14856
T: Garrett Barry's
R: jig
M: 6/8
K: Dmixolydian
A|:DEF ~G3|AGE {d}c2A|dcA d2e|(3.g.f.e d cAG|
~F3 ~G3|AGA (3Bcd e|dcA GEA|DDD D2 A:|
|:dcA d2e|(3.g.f.e d ege|dcA c2d|(3.e.f.g d ecA|
dcA d2e|(3.g.f.e d ege|dcA GEA|DDD D2 A:|

